modules/micon/icons/codiepie.svg

<svg width="1792" height="1792" viewBox="0 0 1792 1792" xmlns="http://www.w3.org/2000/svg"><path d="M1549 679q55 0 85.5 28.5t30.5 83.5-34 82-91 27h-136v177h-25v-398h170zm161 590l-4 11-5 10q-113 230-330.5 366t-474.5 136q-182 0-348-71t-286-191-191-286-71-348 71-348 191-286 286-191 348-71q244 0 454.5 124t329.5 338l2 4 8 16q-30 15-136.5 68.5t-163.5 84.5q-6 3-479 268 384 183 799 366zm-814 501q250 0 462.5-132.5t322.5-357.5l-287-129q-72 140-206 222t-292 82q-151 0-280-75t-204-204-75-280 75-280 204-204 280-75 280 73.5 204 204.5l280-143q-116-208-321-329t-443-121q-119 0-232.5 31.5t-209 87.5-176.5 137-137 176.5-87.5 209-31.5 232.5 31.5 232.5 87.5 209 137 176.5 176.5 137 209 87.5 232.5 31.5z"/></svg>

<svg width="1792" height="1792" xmlns="http://www.w3.org/2000/svg"><path d="M1549 679q55 0 85.5 28.5T1665 791t-34 82-91 27h-136v177h-25V679h170zm161 590l-4 11-5 10q-113 230-330.5 366T896 1792q-182 0-348-71t-286-191-191-286T0 896t71-348 191-286T548 71 896 0q244 0 454.5 124T1680 462l2 4 8 16q-30 15-136.5 68.5T1390 635q-6 3-479 268 384 183 799 366zm-814 501q250 0 462.5-132.5T1681 1280l-287-129q-72 140-206 222t-292 82q-151 0-280-75t-204-204-75-280 75-280 204-204 280-75 280 73.5T1380 615l280-143q-116-208-321-329T896 22q-119 0-232.5 31.5t-209 87.5T278 278 141 454.5t-87.5 209T22 896t31.5 232.5 87.5 209T278 1514t176.5 137 209 87.5T896 1770z"/></svg>
